src/24/panel/jdownloader-indicator.svg

<svg xmlns="http://www.w3.org/2000/svg" width="24" height="24"><defs><style id="current-color-scheme" type="text/css"></style></defs><path d="M12 4a8 8 0 0 0-8 8 8 8 0 0 0 8 8 8 8 0 0 0 8-8 8 8 0 0 0-8-8zm-1 4h2v4h2l-3.018 4L9 12h2V8z" fill="currentColor" color="#d3dae3"/></svg>

<svg xmlns="http://www.w3.org/2000/svg" width="24" height="24" version="1.1">
 <defs>
  <style id="current-color-scheme" type="text/css">
   .ColorScheme-Text { color:#dfdfdf; } .ColorScheme-Highlight { color:#4285f4; }
  </style>
 </defs>
 <path style="fill:currentColor" class="ColorScheme-Text" d="M 12,4 A 8,8 0 0 0 4.0000001,12 8,8 0 0 0 12,20 8,8 0 0 0 20,12 8,8 0 0 0 12,4 Z m -1,4.0000001 2,0 L 13,12 15,12 11.982422,16 9.0000001,12 11,12 11,8.0000001 Z"/>
</svg>
